packages/foundations/assets/icons/functional/images/file/upload_14.svg

<svg width="14" height="14" viewBox="0 0 14 14" fill="none" xmlns="http://www.w3.org/2000/svg">
<g clip-path="url(#clip0_185_1016)">
<path fill-rule="evenodd" clip-rule="evenodd" d="M4.19998 12.6H9.79998C10.9593 12.6 11.9 11.6594 11.9 10.5V9.10002C11.9 8.70627 11.5718 8.40002 11.2 8.40002C10.8062 8.40002 10.5 8.70627 10.5 9.10002V10.5C10.5 10.8719 10.1937 11.2 9.79998 11.2H4.19998C3.80623 11.2 3.49998 10.8719 3.49998 10.5V9.10002C3.49998 8.70627 3.19373 8.40002 2.79998 8.40002C2.42814 8.40002 2.09998 8.70627 2.09998 9.10002V10.5C2.09998 11.6594 3.04064 12.6 4.19998 12.6ZM6.51873 1.59686C6.67182 1.46568 6.84682 1.40002 7.02182 1.40002C7.19682 1.40002 7.34998 1.46568 7.50314 1.59686L9.64682 3.76252C9.75623 3.89377 9.79998 4.06877 9.79998 4.20002C9.79998 4.57186 9.49373 4.90002 9.09998 4.90002C8.88123 4.90002 8.74998 4.83436 8.59682 4.68127L7.69998 3.78436V8.40002C7.69998 8.77186 7.39373 9.10002 6.99998 9.10002C6.60623 9.10002 6.29998 8.77186 6.29998 8.40002V3.78436L5.40314 4.68127C5.27182 4.83436 5.09682 4.90002 4.92182 4.90002C4.57182 4.90002 4.19998 4.59377 4.19998 4.17818C4.19998 4.00318 4.26564 3.82818 4.39682 3.69686L6.51873 1.59686Z" fill="#1A1C1F"/>
</g>
<defs>
<clipPath id="clip0_185_1016">
<rect width="14" height="14" fill="white"/>
</clipPath>
</defs>
</svg>

<svg xmlns="http://www.w3.org/2000/svg" width="14" height="14" fill="none"><g clip-path="url(#a)"><path fill="#1A1C1F" fill-rule="evenodd" d="M4.2 12.6h5.6a2.1 2.1 0 0 0 2.1-2.1V9.1c0-.394-.328-.7-.7-.7-.394 0-.7.306-.7.7v1.4c0 .372-.306.7-.7.7H4.2a.705.705 0 0 1-.7-.7V9.1c0-.394-.306-.7-.7-.7-.372 0-.7.306-.7.7v1.4c0 1.16.94 2.1 2.1 2.1M6.519 1.597a.77.77 0 0 1 .503-.197c.175 0 .328.066.481.197l2.144 2.166A.7.7 0 0 1 9.8 4.2c0 .372-.306.7-.7.7-.219 0-.35-.066-.503-.219L7.7 3.784V8.4c0 .372-.306.7-.7.7a.705.705 0 0 1-.7-.7V3.784l-.897.897a.62.62 0 0 1-.481.219c-.35 0-.722-.306-.722-.722a.68.68 0 0 1 .197-.481z" clip-rule="evenodd"/></g><defs><clipPath id="a"><path fill="#fff" d="M0 0h14v14H0z"/></clipPath></defs></svg>
